X: 1
T: Reel Saint Jean
O: Qu\'ebec
R: reel
Z: 2009 John Chambers <jc:trillian.mit.edu>
N: From a transcription by Terry Traub
M: C|
L: 1/8
K: Bm
|: fe \
| "Bm"dB~B2 FBdB | fBdf bfed |\
[1,3 "A"cA~A2 EAce | cAce "(F#m)"Af :|\
[2,4 "A"ABcd efec | "A"dBcA "Bm"B2 :|
|: "A7"A2 \
|  "D"d2dc "A7"defg | "D"a2ab afdf |\
"G"d'2d'b "D"afde | [1,3 "E(m)"feed "A7"dcBA :|[2,4 "A7"f2e2 "D"d2 :|
